X: 1
T: Rochester Shottish
C: trad.
R: shottish
Z: 2017 John Chambers <jc:trillian.mit.edu>
M: C
L: 1/8
K: D
|:\
"D"F>G A>B A2 f2 | F>G A>B A2 f2 | "A7"g2 g>f e>d [1 c>d |\
(3efe (3dcB (3ABA (3GFE :|[2 c>e | "D"d2 f2 !fine!d4 |]
|:\
"A"e>c e>c a2 a2 | "A"e>c e>c a2 a2 | "D"d2 d>e "E7"d>c B>c |\
[1 "A"A>B c>d "(E7)"e2 c>d :|[2 "A"A2 (3=GAG "A7"F2 "d.C."E2 |]
